X:1
T: Blackadder House
C:Muriel A Johnstone
R:Strathspey
%Q:128
K:G
M:4/4
L:1/16
|:d2|BG3 G3G, DD3 D4|E3G D3G C2c2 B2A2|BG3 G3G, DD3 D4|((3EFG) G2AB cde2 d3c|
BG3 G3G, DD3 D4|E3G D3G C2c2 B2A2|d3c B2A2 G3G FG3|Ee3 d3B AA,3 A,2C2|
B,D3 G3B cE3 E4|F3E D2F2 G2B2 d4|g3f f2e2 d3c c2B2|AG3 B3G A6A,2|
B,D3 G3B cE3 E4|F3E D2F2 GABc d4|g3f f2e2 d3c c2B2|AG3 B3A G6:|
